app/img/map-section.svg

<svg width="26" height="33" viewBox="0 0 26 33" fill="none" xmlns="http://www.w3.org/2000/svg">
<g clip-path="url(#clip0)">
<path d="M13.0013 19.884C16.4941 19.884 19.3346 17.0435 19.3346 13.5506C19.3346 10.0578 16.4941 7.21729 13.0013 7.21729C9.50847 7.21729 6.66797 10.0578 6.66797 13.5506C6.66797 17.0435 9.50847 19.884 13.0013 19.884ZM13.0013 10.384C14.7477 10.384 16.168 11.8042 16.168 13.5506C16.168 15.297 14.7477 16.7173 13.0013 16.7173C11.2549 16.7173 9.83464 15.297 9.83464 13.5506C9.83464 11.8042 11.2549 10.384 13.0013 10.384Z" fill="#2091F9"/>
<path d="M11.7485 32.256C12.0164 32.4473 12.3375 32.5502 12.6668 32.5502C12.9961 32.5502 13.3172 32.4473 13.5851 32.256C14.0665 31.9155 25.3794 23.7471 25.3335 13.5505C25.3335 6.56637 19.6509 0.883789 12.6668 0.883789C5.68272 0.883789 0.000139393 6.56637 0.000139393 13.5425C-0.0457773 23.7471 11.2671 31.9155 11.7485 32.256ZM12.6668 4.05046C17.9061 4.05046 22.1668 8.31121 22.1668 13.5584C22.2001 20.5852 15.2191 26.8948 12.6668 28.9642C10.1161 26.8932 3.13356 20.582 3.16681 13.5505C3.16681 8.31121 7.42756 4.05046 12.6668 4.05046Z" fill="#2091F9"/>
</g>
<defs>
<clipPath id="clip0">
<rect width="26" height="32" fill="white" transform="translate(0 0.717285)"/>
</clipPath>
</defs>
</svg>

<svg width="26" height="33" fill="none" xmlns="http://www.w3.org/2000/svg"><g clip-path="url(#clip0)" fill="#2091F9"><path d="M13.001 19.884a6.34 6.34 0 006.334-6.333A6.34 6.34 0 0013 7.217a6.34 6.34 0 00-6.333 6.334A6.34 6.34 0 0013 19.884zm0-9.5a3.17 3.17 0 013.167 3.167 3.17 3.17 0 01-3.167 3.166 3.17 3.17 0 01-3.166-3.166A3.17 3.17 0 0113 10.384z"/><path d="M11.748 32.256a1.58 1.58 0 001.837 0c.481-.34 11.794-8.509 11.748-18.706 0-6.984-5.682-12.666-12.666-12.666S0 6.566 0 13.543c-.046 10.204 11.267 18.373 11.748 18.713zm.919-28.206c5.24 0 9.5 4.261 9.5 9.508.033 7.027-6.948 13.337-9.5 15.406-2.55-2.07-9.533-8.382-9.5-15.413 0-5.24 4.26-9.5 9.5-9.5z"/></g><defs><clipPath id="clip0"><path fill="#fff" transform="translate(0 .717)" d="M0 0h26v32H0z"/></clipPath></defs></svg>
